X: 72
T:The Ookpik Waltz
M:3/4
L:1/4
R:Waltz
Z:Kevin Gow
K:G
(3D/2E/2F/2|G>F G/2B/2| AG E/2D/2|EG>A|GBd|e>d e/2f/2|ed B/2A/2|Bd>e|dBd
|!
e>d e/2f/2|ed B/2A/2|BdB/2A/2|GED|CEG|FED|EG>A|1G2 (3G/2E/2F/2:|2GBd||!
eB>A|Bge|dB>A|B2 (3B/2A/2G/2|A>G A/2B/2|AG E/2D/2|EGG/2A/2|GBd|!
eB>A|Bge|dB>A|B2(3B/2A/2G/2|A>G A/2B/2|AGE/2D/2|EGG/2A/2|G2Z||
